!!!COM: Scarlatti, Domenico
!!!CDT: 1685-1757
!!!OTL: Sonata in G major, L.304, K.470
!!!SCT: K. 470
!!!SCT: L. 304
!!!OMD: Allegro ([half]=108)
**kern	**kern	**dynam
*staff2	*staff1	*staff1/2
*Icemba	*Icemba	*
*I"L.304 (K.470)	*I"L.304 (K.470)	*
*>[A,A,B,B]	*>[A,A,B,B]	*>[A,A,B,B]
*>norep[A,B]	*>norep[A,B]	*>norep[A,B]
*>A	*>A	*>A
*clefF4	*clefG2	*
*k[f#]	*k[f#]	*
*G:	*G:	*
*M2/2	*M2/2	*
*met(c|)	*met(c|)	*
*MM216	*MM216	*
4r	4gg'	mf
=1	=1	=1
2GG 2G	(4gg	.
.	4dd)	.
2B 2d	(4dd	.
.	4ee)	.
=2	=2	=2
.	(ff#8q	.
2F# 2c 2d	(4ee)	.
.	4dd)	.
.	(ee8q	.
2F# 2c 2d	(4dd)	.
.	4cc)	.
=3	=3	=3
.	(cc8q	.
2G 2d	(<)<4b	.
.	4a	.
2E 2c#	4gM	.
.	8f#L	.
.	8gJ)	.
=4	=4	=4
.	(4gqq	.
4D	2a)	.
4D (4d	.	.
4Cn 4cn)	4r	.
4BB' 4B'	4dd'	.
=5	=5	=5
(<4AA 4A	(4dd	.
4GG 4G	4f#)	.
4FF# 4F#	(4f#	.
4EE 4E	4g)	.
!!LO:LB:g=z
=6	=6	=6
4DD 4D	4g'	.
4CC 4C	(4f# 4a	.
4BBB 4BB	4g 4b	.
4AAA 4AA	4a 4cc	.
=7	=7	=7
4GGG) 4GG	4b 4dd)	.
(4C	(8eeL	.
.	8ccJ	.
4D'/)	4g' 4b')	.
4DD	4f#' 4a'	.
=8	=8	=8
2.GGG	2gMM<	.
.	4r	.
4r	4gg'	p
=9	=9	=9
2GG 2G	(4gg	.
.	4dd)	.
2B- 2d	(4dd	.
.	4ee-)	.
=10	=10	=10
.	(ffn8q	.
2F# 2c 2d	(4ee-)	<
.	4dd)	.
.	(ee-8q	.
2F# 2c 2d	()4dd	.
.	4cc)	.
=11	=11	=11
.	(cc8q	.
2G 2d	(<4b-)	.
.	4a	.
2E- 2c	4gM	.
.	8f#L	.
.	8gJ)	.
!!LO:LB:g=z
=12	=12	=12
.	(4gqq	.
4D	2a)	mf
4D (4d	.	.
4C 4c)	4r	.
4BB-' 4B-'	4dd'	.
=13	=13	=13
(<4AA 4A	(4dd	.
4GG 4G	4f#)	.
4FF# 4F#	(4f#	.
4EE- 4E-	4g)	.
=14	=14	=14
4DD 4D	4a'	.
4CC 4C	(4f# 4a	.
4BBB- 4BB-	4g 4b-	.
4AAA 4AA	4a 4cc	.
=15	=15	=15
4GGG) 4GG	4b- 4dd)	.
(4C	(8ee-L	.
.	8ccJ	.
4D'/)	4g' 4b-')	.
4DD'	4f#' 4a'	.
=16	=16	=16
2GGG	2gMM<	.
2r	4r	.
.	4gg'	p
=17	=17	=17
2G 2g	(4gg	.
.	4bn)	.
2G 2fn 2g	(4b	.
.	4aa')	.
!!LO:LB:g=z
=18	=18	=18
*	*^	*
2G 2e	(4aa	2cc	.
.	4gg)	.	.
2G 2d	(4gg	2dd	.
.	4ffn)	.	.
=19	=19	=19	=19
*^	*	*	*
(4c	2G	(4eem	2g	.
4B)	.	4dd)	.	<
2c	2G	(4ee	2cc	.
.	.	8ddL	.	.
.	.	8eeJ)	.	[[
*v	*v	*	*	*
*	*v	*v	*
=20	=20	=20
.	(4eeqq	>
1GG	2ddMM)	.
.	4r	]
.	4gg'	p
=21	=21	=21
2G 2g	(4gg	<
.	4b)	.
2G 2fn 2g	(4b	.
.	4aa-)	.
=22	=22	=22
*	*^	*
2G 2e-	(4aa-	2cc	.
.	4gg)	.	.
2G 2d	(4gg	2dd	.
.	4ffn)	.	.
=23	=23	=23	=23
*^	*	*	*
(4c	2G	(4ee-M	2g	.
4B)	.	4dd)	.	.
2c	2G	(4ee-	2cc	.
.	.	8ddL	.	.
.	.	8ee-J	.	.
*v	*v	*	*	*
!!LO:LB:g=z
=24	=24	=24	=24
2F# 2c 2d	1dd	(4cc)	mf
.	.	8b-L	.
.	.	8aJ)	.
2G 2d	.	(4b-M	.
.	.	8aL	<
.	.	8b-J	.
=25	=25	=25	=25
2F# 2c 2d	1dd	4cc	.
.	.	8b-L	.
.	.	8aJ)	.
2G 2d	.	(4b-M	.
.	.	8aL	.
.	.	8b-J	.
=26	=26	=26	=26
2F# 2c 2d	1dd	4cc	.
.	.	8b-L	.
.	.	8aJ)	.
2G 2d	.	(4b-M	.
.	.	8aL	.
.	.	8gJ)	.
*	*v	*v	*
=27	=27	=27
*	*^	*
2D 2A@ 2d@	2dd	(4g	f
.	.	4a)	.
*	*v	*v	*
2r	2r	.
=28	=28	=28
*	*^	*
*ped	*	*	*
1DD 1AA 1D	2.dd^ 2.ff#^	4a'	f
.	.	(8aL	.
.	.	8f#J	.
.	.	2a)	.
.	4dd' 4ff#'	.	.
!!LO:LB:g=z
=29	=29	=29	=29
*Xped	*	*	*
1AAA 1EE 1AA	4dd' 4ff#'	4a'	.
.	8eeL	(4b	.
.	8ddJ	.	.
.	4ee	4cc#)	.
.	4ff#	4dd'	.
=30	=30	=30	=30
*ped	*	*	*
1AAA 1EE 1AA	2.ee^ 2.gg^	4cc#'	.
.	.	(8cc#L	.
.	.	8aJ	.
.	.	2g)	.
.	4cc#' 4ee' 4gg'	.	.
=31	=31	=31	=31
*	*	*^	*
*Xped	*	*	*	*
1DD 1AA 1D	4ee (4gg	1a	2ryy	.
.	8dd 8ff#L	.	.	.
.	8cc# 8eeJ	.	.	.
.	4ff#')	.	2dd\	.
.	4aa'	.	.	.
*	*	*v	*v	*
=32	=32	=32	=32
*ped	*	*	*
1DD 1AA 1D	2.dd^ 2.ff#^	4a'	p
.	.	(8aL	.
.	.	8f#J	.
.	.	2a)	.
.	4dd' 4ff#'	.	.
=33	=33	=33	=33
*Xped	*	*	*
1AAA 1EE 1AA	4dd' 4ff#'	4a'	.
.	(8eeL	(4b	.
.	8ddJ	.	.
.	4ee')	4cc#')	.
.	4ff#	4dd'	.
!!LO:LB:g=z
=34	=34	=34	=34
*ped	*	*	*
1AAA 1EE 1AA	2.ee^ 2.gg^	4cc#'	.
.	.	(8cc#L	.
.	.	8aJ	.
.	.	2g)	.
.	4cc#' 4ee' 4gg'	.	.
=35	=35	=35	=35
*Xped	*	*	*
2DD 2AA 2D	4ee (4gg	2a	.
!	!LO:TX:c:i:t=rall.	!	!
.	8dd 8ff#L	.	.
.	8cc# 8eeJ	.	.
2r;	2ryy	2dd;>)	.
*clefG2	*	*	*
=36	=36	=36	=36
*ped	*	*	*
(<1dd	4ddd	(8ffnL	p
.	.	8ee	.
.	4ryy	8ff	.
.	.	8ggJ	.
.	2ryy	8aaL	.
.	.	8gg)	.
.	.	(<8ffM>	.
.	.	8eeJ)	.
=37	=37	=37	=37
*ped	*	*	*
1cc	4ddd	(8ffnL	<
.	.	8ee	.
.	4ryy	8ff	.
.	.	8ggJ	.
.	2ryy	8aaL	.
.	.	8gg)	.
.	.	(<8ffM>	.
.	.	8eeJ)	.
!!LO:LB:g=z
=38	=38	=38	=38
*ped	*	*	*
1b- 1dd	4ddd	(8ffnL	.
.	.	8ee	.
.	4ryy	8ff	.
.	.	8ggJ	.
.	2ryy	8aaL	.
.	.	8gg)	.
.	.	(<8ffM>	.
.	.	8eeJ)	.
=39	=39	=39	=39
*ped	*	*	*
1a) 1dd	4ddd	(8ffnL	mf
.	.	8ee	.
.	4ryy	8ff	.
.	.	8ggJ	.
.	2ryy	8aaL	.
.	.	8gg	.
.	.	8aa	.
.	.	8ffJ)	.
=40	=40	=40	=40
*ped	*	*	*
(<1g 1b-	4ccc#	(8eeL	p
.	.	8dd	<
.	4ryy	8ee	.
.	.	8ffnJ	.
.	2ryy	8ggL	.
.	.	8ff)	.
.	.	(<8eem>	.
.	.	8ddJ)	.
=41	=41	=41	=41
*ped	*	*	*
1a 1cc#	4ccc#	(8eeL	.
.	.	8dd	.
.	4ryy	8ee	.
.	.	8ffnJ	.
.	2ryy	8ggL	.
.	.	8ff)	.
.	.	(<8eem>	.
.	.	8ddJ)	.
!!LO:LB:g=z
=42	=42	=42	=42
*ped	*	*	*
1g 1b-)	4ccc#	(8eeL	.
.	.	8dd	.
.	4ryy	8ee	.
.	.	8ffnJ	.
.	2ryy	8ggL	.
.	.	8ff)	.
.	.	(<8eemm>	.
.	.	8ddJ)	.
=43	=43	=43	=43
1g 1b-	4ccc#	(8eeL	.
.	.	8dd	.
.	4ryy	8ee	.
.	.	8ffnJ	.
.	2ryy	8ggL	.
.	.	8ff)	.
.	.	(<8eem>	.
.	.	8ddJ)	.
*	*v	*v	*
=44	=44	=44
*Xped	*	*
(<[2a	(8eeL	f
.	8dd	.
.	8cc#	.
.	8bJ	.
8aL]	4a)	>
8g	.	.
8f#	4r	.
8eJ	.	]]
*clefF4	*	*
=45	=45	=45
8dLM	(8ff#Lm	p
8c#	8ee	<
8d	8ff#	.
8eJ	8ggJ	.
8f#L	2aa)	.
8e	.	.
8d	.	.
8c#J	.	.
!!LO:LB:g=z
=46	=46	=46
*^	*	*
*ped	*	*	*
8dLM	1B)	(8ff#Lm	.
8c#	.	8ee	.
8d	.	8ff#	.
8eJ	.	8ggJ	.
8f#L	.	2aa)	.
8e	.	.	.
8d	.	.	.
8c#J	.	.	.
=47	=47	=47	=47
*ped	*	*	*
(8dLM	1A	(8ff#Lm	.
8c#	.	8ee	.
8d	.	8ff#	.
8eJ	.	8ggJ	.
8f#L	.	2aa)	.
8e	.	.	.
8d	.	.	.
8c#J)	.	.	.
=48	=48	=48	=48
*ped	*	*	*
(8dLM	1G	(8ff#Lm	.
8c#	.	8ee	.
8d	.	8ff#	.
8eJ	.	8ggJ	.
8f#L	.	2aa)	.
8e	.	.	.
8d	.	.	.
8c#J)	.	.	.
=49	=49	=49	=49
*ped	*	*	*
(8dLM	1F#	(8ff#Lm	.
8c#	.	8ee	.
8d	.	8ff#	.
8eJ	.	8ggJ	.
8f#L	.	2aa	.
8e	.	.	.
8d	.	.	.
8c#J	.	.	.
*v	*v	*	*
!!LO:LB:g=z
=50	=50	=50
*Xped	*	*
8BL	4dd')	f
8A	.	.
8G	2bb^	.
8F#J	.	.
8EL	.	.
8D	.	.
8C#	([4gg^	.
8BBJ)	.	.
=51	=51	=51
1AAA^	8ggL]	.
.	8ff#	.
.	8ee	.
.	8ddJ	.
.	8cc#L	.
.	8b	.
.	8a	.
.	8gJ	.
=52	=52	=52
(4DD	8f#L	.
.	8g	.
4GG	8a	.
.	8gJ	.
4AA')	8f#L	>
.	8e	.
4AAA'	8d	.
.	8c#J)	]]
=53	=53	=53
(<8dLM	(8ff#Lm	p
8c#	8ee	<
8d	8ff#	.
8eJ	8ggJ	.
8f#L	2aa)	.
8e	.	.
8d	.	.
8c#J	.	.
!!LO:LB:g=z
=54	=54	=54
*^	*	*
*ped	*	*	*
&(8dLM	1B)	(8ff#Lm	.
8c#	.	8ee	.
8d	.	8ff#	.
8eJ	.	8ggJ	.
8f#L	.	2aa)	.
8e	.	.	.
8d	.	.	.
8c#J&)	.	.	.
=55	=55	=55	=55
*ped	*	*	*
(8dLM	1A	(8ff#Lm	.
8c#	.	8ee	.
8d	.	8ff#	.
8eJ	.	8ggJ	.
8f#L	.	2aa)	.
8e	.	.	.
8d	.	.	.
8c#J)	.	.	.
=56	=56	=56	=56
*ped	*	*	*
(8dLM	1G	(8ff#Lm	.
8c#	.	8ee	.
8d	.	8ff#	.
8eJ	.	8ggJ	.
8f#L	.	2aa)	.
8e	.	.	.
8d	.	.	.
8c#J)	.	.	.
=57	=57	=57	=57
*ped	*	*	*
(8dLM	1F#	(8ff#Lm	.
8c#	.	8ee	.
8d	.	8ff#	.
8eJ	.	8ggJ	.
8f#L	.	2aa	.
8e	.	.	.
8d	.	.	.
8c#J	.	.	.
*v	*v	*	*
!!LO:LB:g=z
=58	=58	=58
*Xped	*	*
8BL	4dd')	f
8A	.	.
8G	2bb^	.
8F#J	.	.
8EL	.	.
8D	.	.
8C#	([4gg^	.
8BBJ)	.	.
=59	=59	=59
1AAA	8ggL]	.
.	8ff#	.
.	8ee	.
.	8ddJ	.
.	8cc#L	.
.	8b	.
.	8a	.
.	8gJ	.
=60	=60	=60
(4DD	8f#L	.
.	8g	.
4GG	8a	.
.	8gJ	.
4AA')	8f#L	.
.	8e	.
4AAA'	8d	.
.	8c#J	.
=61	=61	=61
1DD	8dL)	p
.	(8f#	<
.	8g	.
.	8eJ	.
.	8f#L	.
.	8dd	.
.	8ee	.
.	8cc#J	.
!!LO:LB:g=z
=62	=62	=62
1DD	8ddL	.
.	8ff#	.
.	8gg	.
.	8eeJ	.
.	8ff#L	.
.	8ccc#	.
.	8ddd	.
.	8aaJ	.
=63	=63	=63
(2GG	8bbL	f
.	8ee	.
.	8ff#	.
.	8ggJ	.
2AA)	8ff#L	.
.	8ee	.
.	8dd	.
.	8cc#J	.
=64	=64	=64
8r	1dd)	p
(8f#L	.	.
8g	.	<
8eJ	.	.
8f#L	.	.
8d	.	.
8e	.	.
8c#J	.	.
=65	=65	=65
8dL	1ddMM	.
8A	.	.
8B	.	.
8GJ	.	.
8AL	.	.
8F#	.	.
8G	.	.
8EJ	.	.
!!LO:LB:g=z
=66	=66	=66
8F#L	1ddMM	.
8D	.	.
8E	.	.
8C#J	.	.
8DL	.	.
8AA	.	.
8BB	.	.
8GGJ	.	.
=67	=67	=67
8AAL	1ddMM	.
8FF#	.	.
8GG	.	.
8EEJ	.	.
8FF#L	.	.
8DD	.	.
8EE	.	.
8CC#J	.	.
=68	=68	=68
*ped	*	*
1DD)	8r	.
.	(8dL	f
.	8f#	.
.	8aJ	.
.	8ddL)	.
.	(8dd	.
.	8ff#	.
.	8aaJ	.
=69	=69	=69
*	*^	*
*Xped	*	*	*
(<2D	2ryy	4ddd')	.
.	.	4dd'	.
2AA	(2eeM	2cc#m	.
*	*v	*v	*
!!LO:LB:g=z
=70	=70	=70
*ped	*	*
1DD)	8ddL)	.
.	(8d	p
.	8f#	.
.	8aJ	.
.	8ddL)	.
.	(8dd	.
.	8ff#	.
.	8aaJ	.
=71	=71	=71
*Xped	*	*
(<2D	4ddd')	.
.	4d'	f
.	f#16qq	.
2AA	(2c# 2eT	.
=72	=72	=72
2.DD)	2.d)	.
=:|!|:	=:|!|:	=:|!|:
*>B	*>B	*>B
4r	4ddd'	p
*clefG2	*	*
=73	=73	=73
2d 2f# 2a	(4ddd	.
.	4aa)	.
2d 2f# 2a	(4aa	.
.	4bb)	.
=74	=74	=74
2c# 2g 2a	(4bb	.
.	4aa)	.
2c# 2g 2a	(4aa	.
.	4gg)	.
!!LO:LB:g=z
=75	=75	=75
*^	*	*
(2.a	(2d	(4ff#	.
.	.	4ee	.
.	2B	4ddM	.
4g#	.	8cc#L	.
.	.	8ddJ)	.
*v	*v	*	*
=76	=76	=76
.	(dd8qq	.
4A 4a)@)	2ee)	.
*clefF4	*	*
4A (4a	.	<
4Gn 4gn)	4r	.
4F#' 4f#'	4aa'	.
=77	=77	=77
4E (4e	(4aa	.
4D 4d	4cc#)	.
4C# 4c#	(4cc#	.
4BB 4B	4dd)	.
=78	=78	=78
4AA 4A	4dd'	.
4GG 4G	(4cc# 4ee	.
4FF# 4F#	4dd 4ff#	.
4EE 4E	4ee 4gg	.
=79	=79	=79
4DD 4D)	4ff# 4aa)	f
(4G	(8bbL	.
.	8ggJ	.
4A')	4dd' 4ff#')	.
4AA'	4cc#' 4ee'	.
=80	=80	=80
2.DD	2ddMM	.
.	4r	.
4r	4ddd'	p
*clefG2	*	*
!!LO:LB:g=z
=81	=81	=81
2d 2f# 2a	(4ddd	.
.	4aa)	.
2d 2f# 2a	(4aa	.
.	4bb-)	.
=82	=82	=82
2c# 2g 2a	(4bb-	.
.	4aa)	.
2c# 2g 2a	(4aa	.
.	4gg)	.
=83	=83	=83
*^	*	*
.	.	(8qgg	.
(2.a	(2d	()4ff#	.
.	.	4ee	.
.	2B-	4ddM	.
4g#	.	8cc#L	.
.	.	8ddJ)	.
*v	*v	*	*
=84	=84	=84
2A 2a))	(4dd	>
.	4ee)	]
2r	4r	.
.	4ee	p
=85	=85	=85
(<2a 2ccn	4ee 4cccn	.
.	4ee 4ccc	.
2g 2b	4ee 4ccc	.
.	4ee 4ccc	.
!!LO:LB:g=z
=86	=86	=86
2f#) [2a	(4ee 4ccc	.
.	4dd 4bb)	.
.	(<aa8q	.
(2fn 2a]	([2b [2gg#)	mf
=87	=87	=87
2e 2g#	4b] 4gg#]	.
.	4dd 4bb)	.
.	(<aa8q	.
2fn 2a	([2b [2gg#)	.
=88	=88	=88
2e 2g#	4b] 4gg#X]	.
.	4dd 4bb)	.
.	(<aa8q	.
2fn 2a	[2b [2gg#)	.
=89	=89	=89
*	*^	*
2e 2g#	4ryy	4b] 4gg#X]	.
.	2.aa	(4cc	.
2fn 2a	.	4dd	.
.	.	8ccL	.
.	.	8ddJ	.
=90	=90	=90	=90
2e) 2b	(4aa	2ee)	.
.	4bb)	.	.
2r	2r	2r	.
*clefF4	*	*	*
!!LO:LB:g=z
=91	=91	=91	=91
*ped	*	*	*
1EE 1BB 1E	2.ee^ 2.gg#^	4b'	f
.	.	(8bL	.
.	.	8g#J	.
.	.	2b)	.
.	4ee' 4gg#'	.	.
=92	=92	=92	=92
*Xped	*	*	*
1BBB 1BB	4ee' 4gg#'	4b'	.
.	(8ff#L	(4cc#	.
.	8eeJ	.	.
.	4ff#')	4dd#')	.
.	4gg#'	4ee'	.
=93	=93	=93	=93
*ped	*	*	*
1BBB 1BB	2.aa^	4b' 4dd#' 4ff#'	.
.	.	(8ff#L	.
.	.	8dd#J	.
.	.	4b')	.
.	4aa	4b' 4dd#' 4ff#'	.
=94	=94	=94	=94
*Xped	*	*	*
1EE 1BB 1E	(4aa^	4b 4ee	.
.	4ryy	8gg#L	.
.	.	8ff#J	.
.	2ryy	8eeL	.
.	.	8b	.
.	.	8ee	.
.	.	8gg#J)	.
=95	=95	=95	=95
*ped	*	*	*
1EE 1BB 1E	2.e^ 2.g#^	4B'	p
.	.	(8AL	.
.	.	8G#J	.
.	.	4B)	.
.	4e' 4g#'	4B'	.
!!LO:LB:g=z
=96	=96	=96	=96
*Xped	*	*	*
1BBB 1BB	4e' 4g#'	4B	.
.	(8f#L	(4c#	.
.	8eJ	.	.
.	4f#'	4d#'))	.
.	4g#'	4e'	.
=97	=97	=97	=97
*ped	*	*	*
1BBB 1BB	2.a^	(4B 4d# 4f#	.
.	.	8f#L	.
.	.	8d#J	.
.	.	4B')	.
.	4d#' 4f#' 4a'	4B'	.
=98	=98	=98	=98
*Xped	*	*	*
1EE 1BB 1E	(4a^	2B^ 2e^	.
.	8g#L	.	.
.	8f#J	.	.
.	4e)	2ryy	.
.	(4ee\	.	p
*	*v	*v	*
*clefG2	*	*
=99	=99	=99
(<2a 2ee	(4aa')	.
.	4aa'	.
2g 2ee	4aa'	.
.	4aa'	.
=100	=100	=100
2f# 2ee	4aa'	.
.	4aa'	.
2g 2dd)	4aa'	.
.	4bb')	.
!!LO:LB:g=z
=101	=101	=101
2e 2g 2cc#	(4bb	.
.	4aa	.
(2e 2g 2cc#	4gg	.
.	8ff#L	.
.	8ggJ)	.
=102	=102	=102
2d) 2a 2dd	(4gg	>
.	4aa)	]
2r	2r	.
*clefF4	*	*
=103	=103	=103
*	*^	*
*ped	*	*	*
1GG 1D	2.d^ 2.g^	4B'	p
.	.	(8BL	.
.	.	8GJ	.
.	.	4B)	.
.	4d' 4g'	4B'	.
*	*v	*v	*
=104	=104	=104
*Xped	*	*
1DD 1AA 1D	4B' 4d' 4g'	<
.	(8A 8f#L	.
.	8G 8eJ	.
.	4A') 4f#'	.
.	4B' 4g'	.
=105	=105	=105
*	*^	*
*ped	*	*	*
1DD 1AA 1D	2.f#^ 2.a^	4c'	.
.	.	(8cL	.
.	.	8BJ	.
.	.	4c)	.
.	4f#' 4a'	4c'	.
*	*v	*v	*
!!LO:LB:g=z
=106	=106	=106
*Xped	*	*
1GGG 1DD 1GG	4c' 4f#' 4a'	.
.	(8B 8gL	.
.	8A 8f#J	.
.	4B') 4g'	.
.	4c' 4a'	.
=107	=107	=107
*	*^	*
*ped	*	*	*
1GGG 1DD 1GG	2.g 2.b	4d	mf
.	.	(8dL	.
.	.	8BJ	.
.	.	4d)	<
.	4g 4b	4d'	.
*	*v	*v	*
=108	=108	=108
*Xped	*	*
1DD 1AA 1D	4d' 4g' 4b'	.
.	(8f# 8aL	.
.	8e 8gJ	.
.	4f#) 4a	.
.	4g' 4b'	.
=109	=109	=109
*	*^	*
*ped	*	*	*
1DD 1AA 1D	2.cc^	4d' 4f#' 4a'	.
.	.	(8aL	.
.	.	8f#J	.
.	.	4d')	.
.	4cc'	4d' 4f#' 4a'	.
!!LO:LB:g=z
=110	=110	=110	=110
*Xped	*	*	*
2GGG 2DD 2GG	(4cc	2d^ 2g^	f >
!	!LO:TX:c:i:t=rall.	!	!
.	8bL	.	.
.	8aJ	.	.
2r	2g)	2ryy	]
*clefG2	*	*	*
=111	=111	=111	=111
*ped	*	*	*
(<1gg	4ggg	(8bb-L	p
!	!	!LO:TX:c:i:t=a tempo	!
.	.	8aa	.
.	4ryy	8bb-	.
.	.	8cccJ	.
.	2ryy	8dddL	.
.	.	8ccc)	.
.	.	(<8bb-M>	.
.	.	8aaJ)	.
=112	=112	=112	=112
*ped	*	*	*
1ffn	4ggg	(8bb-L	<
.	.	8aa	.
.	4ryy	8bb-	.
.	.	8cccJ	.
.	2ryy	8dddL	.
.	.	8ccc)	.
.	.	(<8bb-M>	.
.	.	8aaJ)	.
=113	=113	=113	=113
*ped	*	*	*
1ee- 1gg	4ggg	(8bb-L	.
.	.	8aa	.
.	4ryy	8bb-	.
.	.	8cccJ	.
.	2ryy	8dddL	.
.	.	8ccc)	.
.	.	(<8bb-M>	.
.	.	8aaJ)	.
!!LO:LB:g=z
=114	=114	=114	=114
*ped	*	*	*
1dd 1gg)	4ggg	(8bb-L	mf
.	.	8aa	.
.	4ryy	8bb-	.
.	.	8cccJ	.
.	2ryy	8dddL	.
.	.	8ccc)	.
.	.	(<8ddd	.
.	.	8bb-J)	.
=115	=115	=115	=115
*ped	*	*	*
1cc (1ee-	4fff#X	(8aaL	p
.	.	8gg	<
.	4ryy	8aa	.
.	.	8bb-J	.
.	2ryy	8cccL	.
.	.	8bb-)	.
.	.	(<8aam>	.
.	.	8ggJ)	.
=116	=116	=116	=116
*ped	*	*	*
1dd 1ff#X	4fff#	(8aaL	.
.	.	8gg	.
.	4ryy	8aa	.
.	.	8bb-J	.
.	2ryy	8cccL	.
.	.	8bb-)	.
.	.	(<8aam>	.
.	.	8ggJ)	.
=117	=117	=117	=117
*ped	*	*	*
1cc 1ee-)	4fff#	(8aaL	.
.	.	8gg	.
.	4ryy	8aa	.
.	.	8bb-J	.
.	2ryy	8cccL	.
.	.	8bb-)	.
.	.	(<8aam>	.
.	.	8ggJ)	.
!!LO:LB:g=z
=118	=118	=118	=118
1cc 1ee-	4fff#	(8aaL	.
.	.	8gg	.
.	4ryy	8aa	.
.	.	8bb-J	.
.	2ryy	8cccL	.
.	.	8bb-)	.
.	.	(<8aam>	.
.	.	8ggJ)	.
*	*v	*v	*
=119	=119	=119
*Xped	*	*
(<[2dd	(8aaL	f
.	8gg	.
.	8ff#X	.
.	8eeJ	.
8ddL]	4dd)	>
8cc	.	.
8bn	4r	.
8aJ	.	]]
=120	=120	=120
8gLM	(8bbLm	p
8f#	8aa	<
8g	8bb	.
8aJ	8cccJ	.
8bL	2ddd)	.
8a	.	.
8g	.	.
8f#J	.	.
=121	=121	=121
*^	*	*
*ped	*	*	*
8gLM	1e)	(8bbLm	.
8f#	.	8aa	.
8g	.	8bb	.
8aJ	.	8cccJ	.
8bL	.	2ddd')	.
8a	.	.	.
8g	.	.	.
8f#J	.	.	.
!!LO:LB:g=z
=122	=122	=122	=122
*ped	*	*	*
(8gLM	1d	(8bbLm	.
8f#	.	8aa	.
8g	.	8bb	.
8aJ	.	8cccJ	.
8bL	.	2ddd)	.
8a	.	.	.
8g	.	.	.
8f#J)	.	.	.
=123	=123	=123	=123
*ped	*	*	*
(8gLM	1c	(8bbLm	.
8f#	.	8aa	.
8g	.	8bb	.
8aJ	.	8cccJ	.
8bL	.	2ddd)	.
8a	.	.	.
8g	.	.	.
8f#J)	.	.	.
=124	=124	=124	=124
*ped	*	*	*
(8gLM	1B	(8bbLm	.
8f#	.	8aa	.
8g	.	8bb	.
8aJ	.	8cccJ	.
8bL	.	[2ddd)	f
8a	.	.	.
8g	.	.	.
8f#J	.	.	.
*v	*v	*	*
=125	=125	=125
*Xped	*	*
8eL	4ddd]	.
8d	.	.
8c	2eee^	.
8BJ	.	.
*clefF4	*	*
8AL	.	.
8G	.	.
8F#	([4ccc^	.
8EJ)	.	.
!!LO:LB:g=z
=126	=126	=126
1DD	8cccL]	.
.	8bb	.
.	8aa	.
.	8ggJ	.
.	8ff#L	.
.	8ee	.
.	8dd	.
.	8ccJ	.
=127	=127	=127
(4GG	8bL	.
.	8cc	.
4C	8dd	.
.	8ccJ	.
4D'/)	8bL	>
.	8a	.
4DD'	8g	.
.	8f#J)	]
*clefG2	*	*
=128	=128	=128
(8gLM	(8bbLm	p
8f#	8aa	<
8g	8bb	.
8aJ	8cccJ	.
8bL	2ddd)	.
8a	.	.
8g	.	.
8f#J	.	.
=129	=129	=129
*^	*	*
*ped	*	*	*
&(8gLM	1e)	(8bbLm	.
8f#	.	8aa	.
8g	.	8bb	.
8aJ	.	8cccJ	.
8bL	.	2ddd)	.
8a	.	.	.
8g	.	.	.
8f#J&)	.	.	.
!!LO:LB:g=z
=130	=130	=130	=130
*ped	*	*	*
(8gLM	1d	(8bbLm	.
8f#	.	8aa	.
8g	.	8bb	.
8aJ	.	8cccJ	.
8bL	.	2ddd)	.
8a	.	.	.
8g	.	.	.
8f#J)	.	.	.
=131	=131	=131	=131
*ped	*	*	*
(8gLM	1c	(8bbLm	.
8f#	.	8aa	.
8g	.	8bb	.
8aJ	.	8cccJ	.
8bL	.	2ddd)	.
8a	.	.	.
8g	.	.	.
8f#J)	.	.	.
=132	=132	=132	=132
*ped	*	*	*
(8gLM	1B	(8bbLm	.
8f#	.	8aa	.
8g	.	8bb	.
8aJ	.	8cccJ	.
8bL	.	[2ddd)	f
8a	.	.	.
8g	.	.	.
8f#J	.	.	.
*v	*v	*	*
=133	=133	=133
*Xped	*	*
8eL	4ddd]	.
8d	.	.
8c	2eee^	.
8BJ	.	.
*clefF4	*	*
8AL	.	.
8G	.	.
8F#	([4ccc^	.
8EJ)	.	.
!!LO:LB:g=z
=134	=134	=134
1DD	8cccL]	.
.	8bb	.
.	8aa	.
.	8ggJ	.
.	8ff#L	.
.	8ee	.
.	8dd	.
.	8ccJ	.
=135	=135	=135
(4GG	8bL	.
.	8cc	.
4C	8dd	.
.	8ccJ	.
4D'/)	8bL	.
.	8a	.
4DD'	8g	.
.	8f#J	.
=136	=136	=136
1GG	8gL<)	p
.	(8b	.
.	8cc	<
.	8aJ	.
.	8bL	.
.	8dd	.
.	8ee	.
.	8ccJ	.
=137	=137	=137
1GG	8ddL	.
.	8gg	.
.	8aa	.
.	8ff#J	.
.	8ggL	.
.	8dd	.
.	8ee	.
.	8ff#J	.
!!LO:LB:g=z
=138	=138	=138
(4CC	8eeL	f
.	8b	.
4C	8cc	.
.	8ddJ	.
4D'/)	8bL	.
.	8g	.
4DD'	8a	.
.	8f#J	.
=139	=139	=139
8GG'	4g)	.
*clefG2	*	*
(<8bL>	.	p
8cc	4r	<
8aJ	.	.
8bL	2r	.
8g	.	.
8a	.	.
8f#J	.	.
=140	=140	=140
8gL	1ggMM	.
8d	.	.
8e	.	.
8cJ	.	.
8dL	.	.
8B	.	.
8c	.	.
8AJ	.	.
*clefF4	*	*
=141	=141	=141
8BL	1ggMM	.
8G	.	.
8A	.	.
8F#J	.	.
8GL	.	.
8D	.	.
8E	.	.
8CJ	.	.
!!LO:LB:g=z
=142	=142	=142
8DL	1ggMM	.
8BB	.	.
8C	.	.
8AAJ	.	.
8BBL	.	.
8GG	.	.
8AA	.	.
8FF#J	.	.
=143	=143	=143
*ped	*	*
1GG)	8r	.
!	!	!LO:DY:rj
.	(8gL	f
.	8b	.
.	8ddJ	.
.	8ggL)	.
.	(8gg	.
.	8bb	.
.	8dddJ	.
=144	=144	=144
*Xped	*	*
2GG	4ggg')	.
.	4gg'	.
2DD	2ff#m (2aaM<	.
=145	=145	=145
*ped	*	*
1GGG	8ggL)	.
.	(8g	p
.	8b	.
.	8ddJ	.
.	8ggL)	.
.	(8gg	.
.	8bb	.
.	8dddJ	.
=146	=146	=146
*Xped	*	*
(2GG	4ggg')	.
.	4G'	f
2DD	(2F# 2AT	.
.	16GqLL	.
.	16AqJJ	.
=147	=147	=147
2.GGG)	2.G)	.
==:|!	==:|!	==:|!
*-	*-	*-
!!!RDF**kern: > = above
!!!RDF**kern: < = below
!!!RDF**kern: @ = marked note, color="silver", optional note
!!!verovio: beamFrenchStyle 1
!!!URL-vhv: https://verovio.humdrum.org/?file=scarlatti/sonatas/L304K470.krn
!!!URL-pdf: https://github.com/craigsapp/scarlatti-keyboard-sonatas/blob/master/reference-edition/L304K470.pdf
!!!PTL: Domenico Scarlatti: Opere complete per clavicembalo
!!!PED: Longo, Alessandro
!!!PPR: Ricordi
!!!PPP: Milan
!!!PDT: 1906-1913
!!!YEC: 2021 Craig Stuart Sapp
!!!YEM: Licence: (CC BY-NC-SA 4.0) https://creativecommons.org/licenses/by-nc-sa/4.0
!!!ENC: Craig Stuart Sapp
!!!END: 2004/11/06/
!!!EED: Craig Stuart Sapp
!!!EEV: 2020/12/18
